X: 69
T: Missa De virginibus / Gloria
N: Derived from Rue1015b-Missa_De_virginibus-Gloria.krn
C: Pierre de la Rue
%%abc-version 2.0
%%abcx-abcm2ps-target-version 5.9.1 (29 Sep 2008)
%%abc-creator hum2abc beta
%%abcx-conversion-date 2019/02/17 08:01:12
%%abc-edited-by Jesse Rodin
%%abc-edited-by Chris Gage 06-24-2013
%%abcx-initial-encoding-date 2013/08/05/
%%humdrum-veritas 1881619959
%%humdrum-veritas-data 623145948
%%linebreak <none>
%%barnumbers 0
L: 1/4
M: 4/2
Q: 1/2=120
%%staves [1 2 3 4]
V: 1 clef=treble
V: 2 clef=treble-8
V: 3 clef=treble-8
V: 4 clef=bass
K: C
[V:1] z8 | 
[V:2] f6d2 | 
[V:3] z8 | 
[V:4] F,6F,2 | 
[V:1] z8 | 
[V:2] e2c2d2cB | 
[V:3] z8 | 
[V:4] G,2A,2_B,2A,G, | 
[V:1] c6A2 | 
[V:2] A8 | 
[V:3] c6c2 | 
[V:4] F,8 | 
[V:1] B2G2A2GF | 
[V:2] z8 | 
[V:3] d2e2f2ed | 
[V:4] z8 | 
[V:1] E2A4A2- | 
[V:2] z2f4f2- | 
[V:3] c8- | 
[V:4] z2F,4F,2 | 
[V:1] AGG2F4 | 
[V:2] fee2a4 | 
[V:3] c8 | 
[V:4] C,4F,4 | 
[V:1] E8 | 
[V:2] g2g4fe | 
[V:3] z2c4c2- | 
[V:4] C,2C,3D,E,C, | 
[V:1] z4z2c2- | 
[V:2] f4e4- | 
[V:3] cBB2c3B | 
[V:4] D,4C,4- | 
[V:1] c2c3BA2 | 
[V:2] e4z2f2 | 
[V:3] G2c4c2- | 
[V:4] C,4z2F,2 | 
[V:1] A2G2A2F2 | 
[V:2] f2g2c2d2 | 
[V:3] c2c4B2 | 
[V:4] F,2E,2F,2D,2 | 
[V:1] E4z2G2 | 
[V:2] gfede4 | 
[V:3] c2BAG4 | 
[V:4] C,8 | 
[V:1] A2c3BA2- | 
[V:2] f2f2c2f2- | 
[V:3] F8 | 
[V:4] z8 | 
[V:1] AGFED4 | 
[V:2] fedcB2cB | 
[V:3] z4z2G2 | 
[V:4] z8 | 
[V:1] C4z4 | 
[V:2] c4z4 | 
[V:3] A2c3BAG | 
[V:4] F,2F,2E,2F,2- | 
[V:1] z4z2G2 | 
[V:2] z2f2f2e2 | 
[V:3] AGc4B2 | 
[V:4] F,G,A,F,G,4 | 
[V:1] A2c3BA2- | 
[V:2] f3ec2f2- | 
[V:3] c8 | 
[V:4] F,8 | 
[V:1] AGFED4 | 
[V:2] fedcB2cB | 
[V:3] z4z2G2 | 
[V:4] z8 | 
[V:1] C4z4 | 
[V:2] c2f2g2a2- | 
[V:3] A2c3BAG | 
[V:4] F,2F,2E,2F,2- | 
[V:1] z8 | 
[V:2] agfef4 | 
[V:3] ABc4B2 | 
[V:4] F,E,D,C,D,4 | 
[V:1] G4G2G2 | 
[V:2] e8- | 
[V:3] c8- | 
[V:4] C,4C,4 | 
[V:1] G2G4FE | 
[V:2] e8 | 
[V:3] c8- | 
[V:4] C,2C,4C,2 | 
[V:1] F2G2E2G2- | 
[V:2] z4e4 | 
[V:3] c8- | 
[V:4] F,2E,2C,4 | 
[V:1] G2G4G2- | 
[V:2] e2e2e2e2- | 
[V:3] c8 | 
[V:4] C,8 | 
[V:1] G2FEF2G2 | 
[V:2] e2dcd2e2 | 
[V:3] z8 | 
[V:4] z8 | 
[V:1] A3Bc2d2- | 
[V:2] f4e2d2 | 
[V:3] z8 | 
[V:4] z8 | 
[V:1] dcBAG4 | 
[V:2] f2g3fed | 
[V:3] z8 | 
[V:4] z8 | 
[V:1] z2G2A3B | 
[V:2] e2fef4 | 
[V:3] z8 | 
[V:4] z8 | 
[V:1] c2d3cBA | 
[V:2] e2d4g2- | 
[V:3] z4G4 | 
[V:4] z8 | 
[V:1] B2GABcd2 | 
[V:2] g2fed2B2 | 
[V:3] G2G2G2G2- | 
[V:4] z8 | 
[V:1] G2c4B2 | 
[V:2] e4d4 | 
[V:3] G2FEF2G2 | 
[V:4] z8 | 
[V:1] c8 | 
[V:2] c8 | 
[V:3] E2G4G2 | 
[V:4] C,4C,2C,2 | 
[V:1] z8 | 
[V:2] z8 | 
[V:3] G2G4FE | 
[V:4] C,2E,4D,C, | 
[V:1] z8 | 
[V:2] z8 | 
[V:3] F2G2A3B | 
[V:4] D,2E,2F,3G, | 
[V:1] z8 | 
[V:2] z8 | 
[V:3] c2d3cBA | 
[V:4] E,2D,4G,2- | 
[V:1] z8 | 
[V:2] z8 | 
[V:3] G4z2G2 | 
[V:4] G,F,E,D,E,4 | 
[V:1] z8 | 
[V:2] z8 | 
[V:3] A3Bc2d2- | 
[V:4] F,4z2F,2 | 
[V:1] z8 | 
[V:2] z8 | 
[V:3] dcBAG2d2 | 
[V:4] F,2F,2G,3F, | 
[V:1] z8 | 
[V:2] z8 | 
[V:3] d2d2e3d | 
[V:4] D,2G,4C,2 | 
[V:1] z8 | 
[V:2] z8 | 
[V:3] d2c4B2 | 
[V:4] F,E,D,C,D,4 | 
[V:1] c4c2c2- | 
[V:2] g4g2e2- | 
[V:3] c8 | 
[V:4] C,8 | 
[V:1] c2BAB2G2 | 
[V:2] e2dcd2e2 | 
[V:3] z8 | 
[V:4] z8 | 
[V:1] A8 | 
[V:2] f8 | 
[V:3] c4c2c2- | 
[V:4] F,4F,2F,2 | 
[V:1] z8 | 
[V:2] z8 | 
[V:3] c2BAB2c2 | 
[V:4] A,2G,F,G,2A,2 | 
[V:1] z2A2B2A2 | 
[V:2] f4g2f2 | 
[V:3] d4z4 | 
[V:4] D,4z4 | 
[V:1] BABcd4 | 
[V:2] g2fed4 | 
[V:3] z4z2f2 | 
[V:4] z4D,3E, | 
[V:1] z8 | 
[V:2] z8 | 
[V:3] f2f4ed | 
[V:4] F,G,A,2D,2D2- | 
[V:1] z4z2A2 | 
[V:2] z4f4 | 
[V:3] e4d4 | 
[V:4] D^CC2D4 | 
[V:1] B2A2BABc | 
[V:2] g2f2g2fe | 
[V:3] z8 | 
[V:4] z8 | 
[V:1] d2f4ed | 
[V:2] d8 | 
[V:3] z4z2f2- | 
[V:4] z2D,2F,3G, | 
[V:1] c4c4- | 
[V:2] z4a4- | 
[V:3] f2e2c2f2- | 
[V:4] A,8 | 
[V:1] c2c2c4 | 
[V:2] a2a2a4 | 
[V:3] f2ede4 | 
[V:4] A,8 | 
[V:1] z4d4- | 
[V:2] f2d3efg | 
[V:3] d2f3ed2- | 
[V:4] D,8- | 
[V:1] d2d2d2d2 | 
[V:2] a2g4^f2 | 
[V:3] dcB2A4 | 
[V:4] D,8 | 
[V:1] B2G3ABc | 
[V:2] g2d2e2g2- | 
[V:3] G8 | 
[V:4] z4G,4- | 
[V:1] d2c4B2 | 
[V:2] gfe2d4 | 
[V:3] z4g4 | 
[V:4] G,2G,2G,2G,2 | 
[V:1] c8 | 
[V:2] c8 | 
[V:3] g2g2g2g2 | 
[V:4] E,2C,3D,E,F, | 
[V:1] z8 | 
[V:2] z8 | 
[V:3] e2c3def | 
[V:4] G,2A,4G,F, | 
[V:1] z2c2B2G2 | 
[V:2] z8 | 
[V:3] g2f4e2 | 
[V:4] E,2F,2G,4 | 
[V:1] A2GFE2c2 | 
[V:2] z2c4A2 | 
[V:3] f2edc4 | 
[V:4] F,4z2A,2 | 
[V:1] B2G2A4 | 
[V:2] B2c2AGAB | 
[V:3] z4z2f2 | 
[V:4] G,2E,2F,4 | 
[V:1] G4z4 | 
[V:2] c4z2g2 | 
[V:3] e2c2d4 | 
[V:4] C,2C2B,2G,2 | 
[V:1] z2c2B2G2 | 
[V:2] e2c2dcde | 
[V:3] c4z4 | 
[V:4] A,4G,4 | 
[V:1] A2GFE2A2 | 
[V:2] f2edc2F2 | 
[V:3] z4z2f2 | 
[V:4] z8 | 
[V:1] G2E2F2A2- | 
[V:2] c4z4 | 
[V:3] e2c2d4 | 
[V:4] z4z2F,2 | 
[V:1] AGFEF4 | 
[V:2] z4z2c2 | 
[V:3] c8 | 
[V:4] E,2C,2F,4 | 
[V:1] E8 | 
[V:2] cBAGA4 | 
[V:3] c8- | 
[V:4] C,8- | 
[V:1] E8 ||  
[V:2] G8 ||  
[V:3] c8 ||  
[V:4] C,8 ||  
[V:1]  [K:C] [K:clef=treble][M:2/1]z4G4 | 
[V:2]  [K:C] [K:clef=treble-8][M:2/1]z8 | 
[V:3]  [K:C] [K:clef=treble-8][M:2/1]c8- | 
[V:4]  [K:C] [K:clef=bass][M:2/1]z8 | 
[V:1] c3de4 | 
[V:2] z8 | 
[V:3] c8 | 
[V:4] z4C,4 | 
[V:1] A4z2e2 | 
[V:2] z4c4 | 
[V:3] c8 | 
[V:4] F,3G,A,4 | 
[V:1] f2d3cA2 | 
[V:2] f3ga4 | 
[V:3] d8 | 
[V:4] D,8 | 
[V:1] B3cd4 | 
[V:2] d4z2d2 | 
[V:3] z4G4 | 
[V:4] z8 | 
[V:1] G4z2G2 | 
[V:2] e3fg2g2 | 
[V:3] c3de2e2 | 
[V:4] z8 | 
[V:1] c3de2e2 | 
[V:2] c8 | 
[V:3] A8- | 
[V:4] z4z2C,2 | 
[V:1] A4z2A2- | 
[V:2] z2c2f3g | 
[V:3] A8 | 
[V:4] F,3G,A,4 | 
[V:1] A2d2A2d2- | 
[V:2] a2defga2- | 
[V:3] z4z2A2 | 
[V:4] D,8 | 
[V:1] dcB2A4 | 
[V:2] a2g4^f2 | 
[V:3] B3cd2d2 | 
[V:4] z4D,4 | 
[V:1] G8 | 
[V:2] g4z2d2 | 
[V:3] G4z2G2 | 
[V:4] E,3F,G,4 | 
[V:1] z4G4 | 
[V:2] e2g3fed | 
[V:3] c3de2e2 | 
[V:4] C,4z2C,2 | 
[V:1] A8 | 
[V:2] c2f2e2f2- | 
[V:3] A3Bc2d2- | 
[V:4] F,3G,A,2D,2 | 
[V:1] A4A4- | 
[V:2] f2e2fga_b | 
[V:3] d2c2d4 | 
[V:4] A,4D,2F,2- | 
[V:1] A2B2c4 | 
[V:2] a2g4f2 | 
[V:3] z4z2A2 | 
[V:4] F,2G,2A,4 | 
[V:1] B2G4F2 | 
[V:2] g2b2a4 | 
[V:3] B3cd2d2 | 
[V:4] G,4z2D,2 | 
[V:1] G2B2BAd2- | 
[V:2] g3fe2f2 | 
[V:3] G3ABcBA | 
[V:4] E,3F,G,2D,2 | 
[V:1] d2c4B2 | 
[V:2] g8 | 
[V:3] c2e2d4 | 
[V:4] E,3F,G,4 | 
[V:1] c4z2F2 | 
[V:2] z8 | 
[V:3] c8- | 
[V:4] C,4F,4 | 
[V:1] G2A4GF | 
[V:2] z8 | 
[V:3] c8 | 
[V:4] E,2F,4E,D, | 
[V:1] E4z2c2 | 
[V:2] z4c4 | 
[V:3] z8 | 
[V:4] C,8 | 
[V:1] d2e4dc | 
[V:2] B2c4BA | 
[V:3] z4c4 | 
[V:4] z8 | 
[V:1] B4c4 | 
[V:2] G4A4 | 
[V:3] d2e4dc | 
[V:4] z8 | 
[V:1] d4G4 | 
[V:2] G4z4 | 
[V:3] B4z2c2 | 
[V:4] z4C4 | 
[V:1] z4z2c2 | 
[V:2] z8 | 
[V:3] d2e4dc | 
[V:4] B,2C4B,A, | 
[V:1] d2e4dc | 
[V:2] z2g4f2 | 
[V:3] B4c4 | 
[V:4] G,4A,4 | 
[V:1] B2G2c3d | 
[V:2] g2d2e2cB | 
[V:3] d3Bcde2- | 
[V:4] G,2B,2A,4 | 
[V:1] e4f4 | 
[V:2] AGG4F2 | 
[V:3] edc4B2 | 
[V:4] G,2E,2D,4 | 
[V:1] e4z2e2- | 
[V:2] G2g2g2g2- | 
[V:3] c8- | 
[V:4] C,8 | 
[V:1] e2e2edcB | 
[V:2] gfede3d | 
[V:3] c8 | 
[V:4] C,6C,2 | 
[V:1] A2f4f2 | 
[V:2] f8- | 
[V:3] z2F2F2F2 | 
[V:4] F,2F,2D,2D,2 | 
[V:1] f3ed2c2- | 
[V:2] f8 | 
[V:3] A3BcBcd | 
[V:4] F,4F,4 | 
[V:1] c2BAG4 | 
[V:2] z8 | 
[V:3] e2f4e2 | 
[V:4] C,4C,4 | 
[V:1] z2F2F2F2 | 
[V:2] c4c2c2 | 
[V:3] f8 | 
[V:4] F,8- | 
[V:1] A3BcBcd | 
[V:2] f2f4ed | 
[V:3] z8 | 
[V:4] F,8 | 
[V:1] e2f4e2 | 
[V:2] c2d2c4 | 
[V:3] z2f2g4 | 
[V:4] z4z2C2 | 
[V:1] f4z2c2 | 
[V:2] z8 | 
[V:3] f2d2e4 | 
[V:4] D3B,C2A,2 | 
[V:1] d3Bc2A2 | 
[V:2] z8 | 
[V:3] d4z2f2 | 
[V:4] B,4A,4 | 
[V:1] B4A4 | 
[V:2] z2d2d2A2 | 
[V:3] g3ef2d2 | 
[V:4] z2G,2D,2F,2 | 
[V:1] z2c2d3B | 
[V:2] B2c2A4 | 
[V:3] e4d4 | 
[V:4] G,2A,2D,4 | 
[V:1] c2A2B4 | 
[V:2] z4z2d2 | 
[V:3] z2f2g3e | 
[V:4] z4z2G,2 | 
[V:1] A4z2c2 | 
[V:2] d2A2B2c2 | 
[V:3] f2d2e4 | 
[V:4] D,2F,2G,2A,2 | 
[V:1] dcBAB2c2 | 
[V:2] A2d4e2 | 
[V:3] d4z2c2 | 
[V:4] D,4z4 | 
[V:1] BAA4^G2 | 
[V:2] fedcd2e2 | 
[V:3] dcBAB4 | 
[V:4] z4z2E,2 | 
[V:1] A8 | 
[V:2] c2fefedc | 
[V:3] A8 | 
[V:4] F,E,D,C,D,C,F,2- | 
[V:1] z8 | 
[V:2] dcf4e2- | 
[V:3] z8 | 
[V:4] F,E,A,2G,3F, | 
[V:1] z8 | 
[V:2] edd4^c2 | 
[V:3] z8 | 
[V:4] D,2F,2E,4 | 
[V:1] z2A4A2 | 
[V:2] d8- | 
[V:3] f6f2 | 
[V:4] D,8 | 
[V:1] A2D3EFG | 
[V:2] d8 | 
[V:3] f4f4 | 
[V:4] z2D,4D,2 | 
[V:1] A2B2A2B2 | 
[V:2] z2d2d2d2 | 
[V:3] f4f4 | 
[V:4] D,2D,2D,2D,2 | 
[V:1] G8- | 
[V:2] B2cBc2c2- | 
[V:3] e8 | 
[V:4] E,3C,C,4- | 
[V:1] G8 | 
[V:2] c2BAG3A | 
[V:3] e8 | 
[V:4] C,4z2C,2 | 
[V:1] z8 | 
[V:2] B2c2B2c2 | 
[V:3] z4e4 | 
[V:4] C,D,E,F,G,2A,2 | 
[V:1] z2D3EFG | 
[V:2] d4A4 | 
[V:3] f6f2 | 
[V:4] D,8 | 
[V:1] A2B2A2B2 | 
[V:2] z2d2d2d2 | 
[V:3] f4f4 | 
[V:4] D,4D,2D,2 | 
[V:1] G2c4c2- | 
[V:2] B2G2c3d | 
[V:3] e8- | 
[V:4] E,3C,C,4 | 
[V:1] c2BAG3A | 
[V:2] efg4fe | 
[V:3] e8 | 
[V:4] z2C,3D,E,F, | 
[V:1] B2c2B2c2 | 
[V:2] d2c2g2c2 | 
[V:3] z4e4 | 
[V:4] G,2A,2G,2A,2 | 
[V:1] A4z2d2 | 
[V:2] z2d2d2d2 | 
[V:3] f6f2 | 
[V:4] D,8- | 
[V:1] d2d2f3e | 
[V:2] f3ed2c2 | 
[V:3] f4f4 | 
[V:4] D,8 | 
[V:1] d2c2B2AG | 
[V:2] B2A2f4 | 
[V:3] f4d4 | 
[V:4] z4z2D,2 | 
[V:1] A4G4 | 
[V:2] f4g4 | 
[V:3] z2d2d2d2 | 
[V:4] D,2D,2G,3F, | 
[V:1] z8 | 
[V:2] z8 | 
[V:3] g3fe2d2- | 
[V:4] E,2D,2C,2B,,2 | 
[V:1] z8 | 
[V:2] z4z2d2 | 
[V:3] dcc4B2 | 
[V:4] C,4D,4 | 
[V:1] z2G2G2G2 | 
[V:2] e2c2e3f | 
[V:3] c4z2G2 | 
[V:4] C,8- | 
[V:1] c3BA2G2- | 
[V:2] g3fe2d2 | 
[V:3] G2G2c3B | 
[V:4] C,8- | 
[V:1] G2F3EE2 | 
[V:2] c8 | 
[V:3] A2GFG4 | 
[V:4] C,8 | 
[V:1] F8 | 
[V:2] z2c2d2f2- | 
[V:3] F8 | 
[V:4] z4z2D,2- | 
[V:1] z8 | 
[V:2] f2ede2f2 | 
[V:3] z8 | 
[V:4] D,E,F,2G,2A,2 | 
[V:1] z2G2A2c2- | 
[V:2] d2g3fed | 
[V:3] z4z2A2 | 
[V:4] _B,4A,4- | 
[V:1] c2BAB2c2 | 
[V:2] e2d4c2 | 
[V:3] c2d2e4 | 
[V:4] A,2F,2G,2A,2 | 
[V:1] A2d3cBA | 
[V:2] d8 | 
[V:3] f2f3edc | 
[V:4] D,8 | 
[V:1] B2A4^G2 | 
[V:2] z8 | 
[V:3] dcBAB4 | 
[V:4] z8 | 
[V:1] A8 | 
[V:2] z2c2d2f2- | 
[V:3] A8 | 
[V:4] z4z2D,2- | 
[V:1] z8 | 
[V:2] f2ede2f2 | 
[V:3] z8 | 
[V:4] D,E,F,2G,2A,2 | 
[V:1] z2G2A2c2- | 
[V:2] d2g3fed | 
[V:3] z4z2A2 | 
[V:4] _B,4A,4- | 
[V:1] c2BAB2c2 | 
[V:2] e2d4c2 | 
[V:3] c2d2e4 | 
[V:4] A,2F,2G,2A,2 | 
[V:1] A2d3c_BA | 
[V:2] d2a2a2g2- | 
[V:3] f2f3edc | 
[V:4] D,2D,2D,2G,2 | 
[V:1] G2A2_B4 | 
[V:2] g2f4e2 | 
[V:3] d2c4_B2 | 
[V:4] _B,A,G,F,G,4 | 
[V:1] A2c3BG2 | 
[V:2] f4z2e2 | 
[V:3] c4z4 | 
[V:4] F,4C,4 | 
[V:1] A3GE4 | 
[V:2] f2e2g2g2 | 
[V:3] z2c3BG2 | 
[V:4] z2C,3D,E,2 | 
[V:1] z2c3BG2 | 
[V:2] c4G2c2- | 
[V:3] A3GE4 | 
[V:4] F,2C,3D,E,2 | 
[V:1] A3GEDG2- | 
[V:2] cdefg2e2 | 
[V:3] z2c3BG2 | 
[V:4] F,2C,3D,E,C, | 
[V:1] G2F3EE2 | 
[V:2] d2B2c4 | 
[V:3] A3FG4 | 
[V:4] F,2D,2C,4 | 
[V:1] F8- | 
[V:2] c2d4cB | 
[V:3] F8 | 
[V:4] z4F,4 | 
[V:1] F8- | 
[V:2] A6B2 | 
[V:3] F8- | 
[V:4] F,8- | 
[V:1] F8 |]  
[V:2] c8 |]  
[V:3] F8 |]  
[V:4] F,8 |]  



